src/assets/icons/addCrop.svg

<svg width="71" height="79" viewBox="0 0 71 79" fill="none" xmlns="http://www.w3.org/2000/svg">
<g clip-path="url(#clip0_765_952)">
<path d="M51.6216 0.168541C49.9635 0.405914 47.6388 1.13501 46.2543 1.84715C41.1776 4.47529 38.7162 9.18897 38.6991 16.2595C38.6991 18.2772 39.0409 21.8379 39.2973 22.6348C39.3315 22.7196 39.1777 23.4826 38.9555 24.3304C38.7162 25.1613 38.4427 26.772 38.3401 27.9081L38.135 29.9767L37.776 29.0102C36.5624 25.6869 33.8617 23.1266 30.8875 22.5162C29.2465 22.194 26.768 22.3975 24.8706 23.0248C22.2212 23.9065 17.5889 26.5855 16.6488 27.7724C16.1702 28.3659 16.3069 29.1119 17.1103 30.3158C19.8452 34.4191 24.0844 36.8776 27.862 36.5216C30.7849 36.2333 33.5027 35.3686 35.759 33.9613L37.2291 33.0287L37.7248 33.5035L38.2034 33.9613V38.0645C38.2034 40.8622 38.135 42.2187 38.0153 42.3035C37.9128 42.3543 37.5538 42.1339 37.212 41.8118C33.0925 37.895 26.3578 39.0819 23.9476 44.1347C23.5716 44.9146 23.4348 45.0503 22.7853 45.2368C20.529 45.915 18.3581 47.6784 17.3496 49.6622C17.042 50.2727 16.6659 51.3917 16.5121 52.1547L16.2215 53.5451L15.213 54.2064C14.0506 54.9524 13.4011 55.6137 10.7687 58.7675L8.90557 61.0226H6.46124C5.12797 61.0226 3.64086 61.1073 3.16225 61.2091C2.06828 61.4465 0.991407 62.2434 0.427331 63.2268L0 63.9898V69.9413V75.8927L0.512797 76.7236C0.837568 77.2322 1.35037 77.7409 1.86316 78.0631L2.70073 78.5717L6.37577 78.6226L10.0508 78.6735L14.3412 74.4345C17.9479 70.8738 18.8026 70.1278 19.6572 69.7208L20.6828 69.2461L30.5969 69.1444C39.1948 69.0596 40.6819 69.0087 41.7759 68.7544C46.8184 67.5844 51.2455 65.1767 54.8009 61.6669C56.9205 59.5983 57.2623 58.9879 57.2623 57.2923C57.2623 56.0037 57.023 55.2915 56.3222 54.4946C56.1684 54.3081 55.9291 53.596 55.8265 52.9177C55.2111 49.4249 52.3737 46.7289 48.8012 46.2881C48.1003 46.2033 47.3482 46.1355 47.1431 46.1524C46.8696 46.1694 46.5449 45.8981 45.9466 45.1859C44.921 43.9312 43.3826 42.863 41.981 42.4391L40.9212 42.1339L40.9896 34.6564C41.0408 28.3659 41.1092 26.9925 41.3485 25.9243C41.5195 25.2291 41.7075 24.6017 41.7588 24.5339C41.8271 24.4661 42.7331 24.3304 43.7587 24.2287C48.3226 23.7539 53.5702 22.3636 57.0401 20.6849C60.0485 19.2268 62.3048 17.6329 64.6295 15.3439C67.5354 12.4445 69.5011 9.35853 70.5779 5.95043C71.1249 4.18704 71.142 3.71228 70.6121 3.22057C69.8258 2.49147 64.0141 0.897636 60.0314 0.304184C57.6384 -0.0349274 53.5531 -0.102753 51.6216 0.168541ZM58.2879 2.88145C61.8262 3.23752 67.9456 4.71267 67.9456 5.18742C67.9456 5.59436 67.0738 7.62905 66.373 8.88377C65.3303 10.715 64.1851 12.1393 62.4074 13.8518C59.1426 16.9886 55.0231 19.142 49.7413 20.4984C47.7927 20.9901 43.0237 21.7701 42.8698 21.6175C42.716 21.4819 43.998 19.2946 45.0065 17.9551C47.2457 14.9539 50.6643 12.3766 53.912 11.2406C55.5188 10.6641 55.9803 10.2911 55.9803 9.52809C55.9803 7.23907 52.2882 8.23946 47.3995 11.851C45.4509 13.2923 43.8099 14.937 42.5621 16.7004C42.1006 17.3447 41.6562 17.9381 41.5707 18.0399C41.246 18.379 41.5536 13.0549 41.9468 11.5967C42.5621 9.2568 43.5194 7.54427 45.109 6.0013C48.1345 3.0171 51.6386 2.18626 58.2879 2.88145ZM31.1097 25.4325C32.0327 25.7717 34.1352 27.4672 33.9301 27.6876C33.8788 27.7385 33.3489 27.6198 32.7506 27.4503C30.8533 26.8568 29.8106 27.0772 29.5713 28.1115C29.4174 28.8067 29.879 29.6206 30.4772 29.7393C33.0754 30.2819 34.8531 30.9092 34.7334 31.2483C34.6309 31.5875 31.2635 33.1643 29.9815 33.4865C28.426 33.8595 26.4603 33.8765 25.2125 33.5035C24.0502 33.1643 22.3921 32.1809 21.3665 31.2144C20.5973 30.5023 19.5717 29.2137 19.5717 28.9593C19.5717 28.7559 22.2725 27.1112 23.7425 26.416C26.6483 25.0765 29.2123 24.7204 31.1097 25.4325ZM33.6908 42.6426C34.2206 42.88 34.9898 43.4904 35.6223 44.1686L36.665 45.2877L37.4342 45.169L38.2034 45.0672V47.2037C38.2034 49.2384 38.2205 49.357 38.6307 49.747C38.8871 50.0183 39.2461 50.1709 39.5708 50.1709C39.8956 50.1709 40.2546 50.0183 40.511 49.747C40.9212 49.357 40.9383 49.2384 40.9383 47.2037C40.9383 45.6777 40.9896 45.0842 41.1434 45.0842C42.0493 45.0842 43.8783 46.6611 44.562 48.0345C45.0407 49.0349 45.468 49.2044 46.8354 48.9671C48.0662 48.7636 49.2285 48.9332 50.3054 49.4757C51.1771 49.9335 52.3053 51.1204 52.7155 52.036L53.0574 52.7991L52.5104 52.9517C51.4506 53.2229 51.0062 53.4434 49.1772 54.5964C46.2201 56.4954 42.2716 57.9366 39.3144 58.2418L38.2034 58.3605V57.6823C38.2034 55.9867 36.9214 54.1216 35.2633 53.3755C34.3574 52.9686 34.3403 52.9686 26.8022 52.9177C18.1701 52.8499 18.9222 53.0364 19.5888 51.273C20.0162 50.137 21.3494 48.7127 22.4776 48.1701C22.9049 47.9667 23.6741 47.7293 24.1869 47.6276C25.127 47.458 25.8962 47.068 25.8962 46.7798C25.8962 46.2542 26.7338 44.5755 27.315 43.9482C29.0585 42.083 31.4686 41.5744 33.6908 42.6426ZM34.101 55.8172C34.8189 56.0715 35.4685 56.9702 35.4685 57.7332C35.4685 58.1571 35.2975 58.4962 34.8531 58.9879L34.2377 59.6492L28.426 59.7L22.6143 59.7509L22.2041 60.2257C21.7084 60.8021 21.6742 61.3447 22.1528 61.9382L22.4947 62.379H28.5115C34.1181 62.379 34.5796 62.3451 35.2633 62.0399C35.6736 61.8534 36.2035 61.5482 36.4428 61.3617C36.7846 61.0904 37.1436 61.0226 38.135 61.0226C41.81 61.0226 46.9893 59.2931 50.8182 56.8006C52.8694 55.4611 53.7411 55.4272 54.3736 56.631C54.8351 57.5127 54.5616 58.0553 52.8352 59.7509C50.2199 62.3282 46.4594 64.5324 43.0408 65.5158C39.964 66.3975 39.3315 66.4484 29.8961 66.4484C24.1527 66.4484 20.8196 66.5162 20.2213 66.6349C18.1359 67.0758 17.3154 67.6353 13.9823 70.9417L10.8542 74.0276V68.4661V62.9047L13.2473 60.09C16.324 56.4615 16.6317 56.2071 18.3752 55.8341C19.6914 55.5459 33.2634 55.5289 34.101 55.8172ZM8.11928 69.8395V75.9436H5.74333C2.39305 75.9436 2.64945 76.4353 2.64945 69.9413C2.64945 63.4133 2.46143 63.7694 6.03391 63.7524L8.11928 63.7355V69.8395Z" fill="black" fill-opacity="0.7"/>
<path d="M50.8011 36.8437C49.7755 37.115 48.8354 37.861 48.2884 38.8275C47.9466 39.421 47.8611 39.8109 47.8611 40.7774C47.8611 41.8117 47.9295 42.083 48.3739 42.8121C50.2541 45.8133 54.9035 45.1859 55.8265 41.7948C56.647 38.8106 53.8095 36.0298 50.8011 36.8437ZM52.8694 39.9296C53.348 40.4553 53.348 41.0148 52.8865 41.5913C52.613 41.9304 52.3908 42.0321 51.878 42.0321C50.7669 42.0321 50.1516 40.9131 50.784 40.0314C51.3481 39.2344 52.1857 39.2005 52.8694 39.9296Z" fill="black" fill-opacity="0.7"/>
</g>
<defs>
<clipPath id="clip0_765_952">
<rect width="71" height="78.6757" fill="white"/>
</clipPath>
</defs>
</svg>

<svg xmlns="http://www.w3.org/2000/svg" width="71" height="79" fill="none"><g fill="#000" fill-opacity=".7" clip-path="url(#a)"><path d="M51.622.169c-1.658.237-3.983.966-5.368 1.678C41.178 4.475 38.716 9.19 38.7 16.26c0 2.018.342 5.579.598 6.376.035.085-.12.848-.341 1.695-.24.831-.513 2.442-.616 3.578l-.205 2.069-.359-.967c-1.214-3.323-3.914-5.883-6.889-6.494-1.64-.322-4.119-.118-6.016.509-2.65.882-7.282 3.56-8.222 4.747-.479.594-.342 1.34.461 2.544 2.735 4.103 6.974 6.562 10.752 6.206 2.923-.289 5.64-1.153 7.897-2.56l1.47-.933.496.474.478.458v4.104c0 2.797-.068 4.154-.188 4.239-.102.05-.461-.17-.803-.492-4.12-3.917-10.854-2.73-13.264 2.323-.376.78-.513.915-1.163 1.102-2.256.678-4.427 2.441-5.435 4.425-.308.61-.684 1.73-.838 2.493l-.29 1.39-1.009.661c-1.162.746-1.812 1.408-4.444 4.561l-1.863 2.256H6.46c-1.333 0-2.82.084-3.299.186-1.094.237-2.17 1.034-2.735 2.018L0 63.99V75.893l.513.83a4.605 4.605 0 0 0 1.35 1.34l.838.509 3.675.05 3.675.052 4.29-4.24c3.607-3.56 4.462-4.306 5.316-4.713l1.026-.475 9.914-.102c8.598-.084 10.085-.135 11.179-.39 5.042-1.17 9.47-3.577 13.025-7.087 2.12-2.069 2.461-2.68 2.461-4.375 0-1.288-.239-2-.94-2.797-.154-.187-.393-.899-.495-1.577-.616-3.493-3.453-6.19-7.026-6.63-.7-.085-1.453-.152-1.658-.136-.273.017-.598-.254-1.196-.966-1.026-1.255-2.564-2.323-3.966-2.747l-1.06-.305.069-7.478c.05-6.29.12-7.663.358-8.732.172-.695.36-1.322.41-1.39.07-.068.975-.204 2-.305 4.565-.475 9.812-1.865 13.282-3.544 3.008-1.458 5.265-3.052 7.59-5.341 2.905-2.9 4.871-5.985 5.948-9.394.547-1.763.564-2.238.034-2.73-.786-.729-6.598-2.322-10.58-2.916-2.394-.339-6.479-.407-8.41-.135Zm6.666 2.712c3.538.357 9.658 1.832 9.658 2.306 0 .407-.872 2.442-1.573 3.697-1.043 1.831-2.188 3.255-3.966 4.968-3.264 3.137-7.384 5.29-12.666 6.646-1.948.492-6.717 1.272-6.871 1.12-.154-.136 1.128-2.323 2.137-3.663 2.239-3.001 5.657-5.578 8.905-6.714 1.607-.577 2.068-.95 2.068-1.713 0-2.289-3.692-1.289-8.58 2.323-1.95 1.441-3.59 3.086-4.838 4.85a41.156 41.156 0 0 1-.991 1.339c-.325.339-.017-4.985.376-6.443.615-2.34 1.572-4.053 3.162-5.596 3.026-2.984 6.53-3.815 13.179-3.12ZM31.11 25.433c.923.339 3.025 2.034 2.82 2.255-.051.05-.581-.068-1.18-.238-1.897-.593-2.94-.373-3.179.662-.154.695.308 1.509.906 1.627 2.598.543 4.376 1.17 4.256 1.51-.102.338-3.47 1.915-4.751 2.238-1.556.372-3.522.39-4.77.017-1.162-.34-2.82-1.323-3.846-2.29-.769-.712-1.794-2-1.794-2.255 0-.203 2.7-1.848 4.17-2.543 2.906-1.34 5.47-1.696 7.368-.983Zm2.58 17.21c.53.237 1.3.847 1.932 1.526l1.043 1.119.77-.119.768-.102v2.137c0 2.034.017 2.153.428 2.543.256.271.615.424.94.424.325 0 .684-.153.94-.424.41-.39.427-.509.427-2.543 0-1.526.052-2.12.205-2.12.906 0 2.735 1.577 3.419 2.95.479 1 .906 1.17 2.273.933 1.231-.203 2.393-.034 3.47.509.872.458 2 1.644 2.41 2.56l.342.763-.547.153c-1.06.27-1.504.491-3.333 1.644-2.957 1.9-6.905 3.34-9.863 3.646l-1.11.119v-.679c0-1.695-1.283-3.56-2.94-4.306-.907-.407-.924-.407-8.462-.458-8.632-.068-7.88.118-7.213-1.645.427-1.136 1.76-2.56 2.889-3.103.427-.203 1.196-.44 1.709-.542.94-.17 1.71-.56 1.71-.848 0-.526.837-2.205 1.418-2.832 1.743-1.865 4.154-2.374 6.376-1.305Zm.411 13.174c.718.255 1.367 1.153 1.367 1.916 0 .424-.17.763-.615 1.255l-.615.661-5.812.051-5.812.05-.41.476c-.496.576-.53 1.119-.051 1.712l.342.441h6.017c5.606 0 6.068-.034 6.751-.34.41-.186.94-.49 1.18-.677.342-.272.7-.34 1.692-.34 3.675 0 8.854-1.729 12.683-4.221 2.051-1.34 2.923-1.374 3.556-.17.461.882.188 1.424-1.539 3.12-2.615 2.577-6.376 4.781-9.794 5.765-3.077.881-3.71.932-13.145.932-5.743 0-9.076.068-9.675.187-2.085.44-2.906 1-6.239 4.307l-3.128 3.086V62.905l2.393-2.815c3.077-3.629 3.385-3.883 5.128-4.256 1.316-.288 14.888-.305 15.726-.017ZM8.119 69.84v6.104H5.743c-3.35 0-3.094.491-3.094-6.003 0-6.528-.188-6.172 3.385-6.189l2.085-.017v6.105Z"/><path d="M50.801 36.844c-1.026.271-1.966 1.017-2.513 1.983-.341.594-.427.984-.427 1.95 0 1.035.069 1.306.513 2.035 1.88 3.001 6.53 2.374 7.453-1.017.82-2.984-2.017-5.765-5.026-4.951Zm2.068 3.086c.479.525.479 1.085.017 1.661-.273.34-.495.441-1.008.441-1.111 0-1.726-1.119-1.094-2 .564-.798 1.402-.831 2.085-.102Z"/></g><defs><clipPath id="a"><path fill="#fff" d="M0 0h71v78.676H0z"/></clipPath></defs></svg>
